protochess-front/static/images/chess_pieces/white/k.svg

<svg xmlns="http://www.w3.org/2000/svg" viewBox="0 0 45 45" width="100%" height="100%" fill="none" fill-rule="evenodd" stroke="#000" xmlns:v="https://vecta.io/nano"><g stroke-linejoin="miter"><g stroke-linecap="round" stroke-width="1.5"><path d="M22.5 11.63V6"/><path d="M20 8h5"/></g><path d="M22.5 25s4.5-7.5 3-10.5c0 0-1-2.5-3-2.5s-3 2.5-3 2.5c-1.5 3 3 10.5 3 10.5" stroke-linecap="butt" stroke-width="1.5" fill="#fff"/></g><g stroke-linejoin="round"><path d="M11.5 37c5.5 3.5 15.5 3.5 21 0v-7s9-4.5 6-10.5c-4-6.5-13.5-3.5-16 4V27v-3.5c-3.5-7.5-13-10.5-16-4-3 6 5 10 5 10V37z" fill="#fff" stroke-width="1.5"/><path d="M11.5 30c5.5-3 15.5-3 21 0m-21 3.5c5.5-3 15.5-3 21 0m-21 3.5c5.5-3 15.5-3 21 0" stroke-width="1.5" stroke-linecap="round"/></g></svg>

<?xml version="1.0" encoding="UTF-8" standalone="no"?>
<!DOCTYPE svg PUBLIC "-//W3C//DTD SVG 1.1//EN" "http://www.w3.org/Graphics/SVG/1.1/DTD/svg11.dtd">
<svg viewBox="0 0 45 45" xmlns="http://www.w3.org/2000/svg" version="1.1" width="100%" height="100%">
    <g style="fill:none; fill-opacity:1; fill-rule:evenodd; stroke:#000000; stroke-width:1.5; stroke-linecap:round;stroke-linejoin:round;stroke-miterlimit:4; stroke-dasharray:none; stroke-opacity:1;">
        <path
                d="M 22.5,11.63 L 22.5,6"
                style="fill:none; stroke:#000000; stroke-linejoin:miter;"/>
        <path
                d="M 20,8 L 25,8"
                style="fill:none; stroke:#000000; stroke-linejoin:miter;"/>
        <path
                d="M 22.5,25 C 22.5,25 27,17.5 25.5,14.5 C 25.5,14.5 24.5,12 22.5,12 C 20.5,12 19.5,14.5 19.5,14.5 C 18,17.5 22.5,25 22.5,25"
                style="fill:#ffffff; stroke:#000000; stroke-linecap:butt; stroke-linejoin:miter;"/>
        <path
                d="M 11.5,37 C 17,40.5 27,40.5 32.5,37 L 32.5,30 C 32.5,30 41.5,25.5 38.5,19.5 C 34.5,13 25,16 22.5,23.5 L 22.5,27 L 22.5,23.5 C 19,16 9.5,13 6.5,19.5 C 3.5,25.5 11.5,29.5 11.5,29.5 L 11.5,37 z "
                style="fill:#ffffff; stroke:#000000;"/>
        <path
                d="M 11.5,30 C 17,27 27,27 32.5,30"
                style="fill:none; stroke:#000000;"/>
        <path
                d="M 11.5,33.5 C 17,30.5 27,30.5 32.5,33.5"
                style="fill:none; stroke:#000000;"/>
        <path
                d="M 11.5,37 C 17,34 27,34 32.5,37"
                style="fill:none; stroke:#000000;"/>
    </g>
</svg>
